svg/fluentui-system-icons/ic_fluent_table_stack_left_20_filled.svg

<svg width="20" height="20" viewBox="0 0 20 20" fill="none" xmlns="http://www.w3.org/2000/svg">
<path d="M3 16.5C3 16.7761 3.22386 17 3.5 17C3.77614 17 4 16.7761 4 16.5L4 3.5C4 3.22386 3.77614 3 3.5 3C3.22386 3 3 3.22386 3 3.5L3 16.5ZM17 5V7H13V3L15 3C16.1046 3 17 3.89543 17 5ZM12 3V7L8 7V3.5C8 3.22386 8.22386 3 8.5 3L12 3ZM12 8L8 8L8 12H12V8ZM17 12V8H13V12H17ZM8 13H12L12 17H8.5C8.22386 17 8 16.7761 8 16.5V13ZM17 13L17 15C17 16.1046 16.1046 17 15 17H13L13 13H17Z" fill="#212121"/>
</svg>

<svg xmlns="http://www.w3.org/2000/svg" width="20" height="20"><path d="M3 16.5a.5.5 0 0 0 1 0v-13a.5.5 0 0 0-1 0v13ZM17 5v2h-4V3h2a2 2 0 0 1 2 2Zm-5-2v4H8V3.5a.5.5 0 0 1 .5-.5H12Zm0 5H8v4h4V8Zm5 4V8h-4v4h4Zm-9 1h4v4H8.5a.5.5 0 0 1-.5-.5V13Zm9 0v2a2 2 0 0 1-2 2h-2v-4h4Z"/></svg>
